!!!ONB: MCCC : IFC0017_02 : Extracted Monophonic Melody
!!!COM: Chopin, Frédéric
!!!OPR: Cello Sonata
!!!OMV: 2
!!!SCT: Op.65
!!!ODT: 1846///
**kern
*staff1
*clefG2
*k[b-]
*F:
*M3/4
4A
=2
4A
8A
8B-
8B-
8A
=3
8A
8d
8c#
8d
4e
=4
4f
8A
8B-
8B-
8A
=5
8A
8F
8E
8D
4E
=6
4AA
4r
4e
=7
4f
2d
=8
4a
2e
=9
4f
2d
=10
2.a
=11
2e
4cc#
=12
2.cc#
=13
2.r
=14
4A
8B-
8A
8c
8B-
=15
4G
8A
8G
8B-
8A
=16
4F
8G
8F
8A
8G
=17
4E
8F
8E
8G
8F
=18
4D
4r
4r
=19
4r
4r
4A
=20
4A
4r
4r
=21
4r
4r
4E
=22
4c
8A
8B-
8B-
8A
=23
4G
8G
8A
8A
8G
=24
4F
8F
8G
8G
8F
=25
4E
8E
8F
8F
8E
=26
2.D
=27
2c
4B-
=28
2.a-
=29
2.r
=30
2.f
=31
4B-
4e-
4d
=32
2.c#
=33
2.d
=34
4dd
8d
8e-
8e-
8d
=35
8d
8g
8f#
8g
4a
=36
4b-
8d
8e-
8e-
8d
=37
8d
8B-
8A
8G
4B-
=38
4E-
4r
4r
=39
4r
4r
4EE-
=40
4E-
4r
4r
=41
4r
4r
4A-
=42
4B-
4f#
4f#
=43
4f#
2c#
=44
4e-
4a-
4f#
=45
4f#
2c#
=46
2.e-
=47
2f#
4ee-
=48
2.ee-
=49
2.r
=50
4B
8c
8B
8d
8c
=51
4A
8B
8A
8c
8B
=52
4G
8A
8G
8B
8A
=53
4F#
8G
8F#
8A
8G
=54
4E
4r
4r
=55
2.G#
=56
2.A
=57
2.B
=58
4c
8A
8B
8B
8A
=59
8D
8A
8G#
8A
4d
=60
4G
8G
8A
8A
8G
=61
8G
8c
8e
8f
4g
=62
4a-
8a-
8b-
8b-
8a-
=63
4a-
2e-
=64
4f
8a-
8b-
8b-
8a-
=65
4a-
8e-
8f#
8f
8e-
=66
4f
8A-
8B-
8B-
8A-
=67
2A-
4C
=68
2A-
4BB
=69
4A-
4BB-
8A-
8B-
=70
4B
2a-
=71
4g
2f#
=72
4g
2c#
=73
4d
2d
=74
4A
2A
=75
4A[
4A]
4A
=76
4c#
2A
=77
2A
4A
=78
2.f
=79
2e
4d
=80
4c#
4c
4B-
=81
4E
4F
4D
=82
4AA
8AA
8BB-
8BB-
8AA
=83
2.r
=84
2.r
=85
2.r
=86
4AA
8AA
8BB-
8BB-
8AA
=87
2.r
=88
2.r
=89
2.r
=90
4A
8A
8B-
8B-
8A
=91
8A
8d
8c#
8d
4e
=92
4f
8A
8B-
8B-
8A
=93
8A
8F
8E
8D
4E
=94
4AA
4r
4e
=95
4f
2d
=96
4a
2e
=97
4f
2d
=98
2.a
=99
2e
4cc#
=100
2.cc#
=101
2.r
=102
4A
8B-
8A
8c
8B-
=103
4G
8A
8G
8B-
8A
=104
4F
8G
8F
8A
8G
=105
4E
8F
8E
8G
8F
=106
4D
4r
4r
=107
4r
4r
4A
=108
4A
4r
4r
=109
4r
4r
4E
=110
4c
8A
8B-
8B-
8A
=111
4G
8G
8A
8A
8G
=112
4F
8F
8G
8G
8F
=113
4E
8E
8F
8F
8E
=114
2.D
=115
2c
4B-
=116
2.a-
=117
2.r
=118
2.f
=119
4B-
4e-
4d
=120
2.c#
=121
2.d
=122
2.e
=123
4B-
4e
4d#
=124
2.e
=125
2.f
=126
2.f#
=127
4B
4f#
4e#
=128
2.f#
=129
2.g
=130
2.a-
=131
2.a
=132
4cc#
4b
4a
=133
4g
4d
4e
=134
2.f#
=135
2.a-
=136
4b
4a
4g#
=137
2b
4a
=138
2.e
=139
2.f#
=140
4a
4g
4f#
=141
2a
4g
=142
2.B
=143
2c#
4B
=144
4A
4B
4c#
=145
4d
4e
4f#
=146
4e
4cc#
4dd
=147
4cc#
4b
4e
=148
4a
4e
4a[
=149
4a]
4g
4f#
=150
2.g
=151
2.b-
=152
4cc#
4b
4a#
=153
2cc#
4b
=154
2.f#
=155
2.a-
=156
4b
4a
4g#
=157
2b
4a
=158
2.a
=159
2.b-
=160
2.b
=161
2.cc
=162
2cc#
4dd
=163
2d
4g
=164
2.e
=165
4d
4r
4c#
=166
2c#
4f#
=167
2f#
4a-
=168
4f#
4f
4cc#
=169
2.cc#[
=170
2cc#]
4e
=171
4r
4a-
4f#
=172
4e
4e-
4b
=173
2.b[
=174
2b]
4d[
=175
4d]
4f#
4e
=176
4d
4c#
4g
=177
2.g[
=178
4g]
4g
4g
=179
2g
4f#
=180
2.d#
=181
2e
4f
=182
2.f#
=183
2.a-
=184
4b
4a
4g#
=185
2b
4a
=186
2.e
=187
2.f#
=188
4a
4g
4f#
=189
2a
4g
=190
2.g
=191
2.a-
=192
2.a
=193
2.b-
=194
4b
4.cc#
8dd
=195
2d
4g
=196
2.e[
=197
4e]
4d
4c#
=198
2c#
4f#
=199
2f#
4a-
=200
4f#
4f
4cc#
=201
2.cc#[
=202
2cc#]
4e
=203
4r
4a-
4f#
=204
4e
4e-
4b
=205
2.b[
=206
2b]
4d[
=207
4d]
4f#
4e
=208
4d
4c#
4g
=209
2.g[
=210
4g]
4g
4g
=211
2g
4f#
=212
2.d#
=213
2e
4f
=214
2.f#
=215
2.a-
=216
4b
4a
4g#
=217
2b
4a
=218
2.e
=219
2.f#
=220
4a
4g
4f#
=221
2a
4g
=222
2.g
=223
2.a-
=224
2.a
=225
2.b-
=226
4b
4.cc#
8dd
=227
2d
4g
=228
2.e
=229
2.f#
=230
2.g
=231
2.a-
=232
4a
4r
4r
=233
16f#
16g
16f#
16g
16f#
16g
16f#
16g
16f#
16g
16e
16f#
=234
2.g
=235
2.a-
=236
2.a
=237
2.b-
=238
2.a
=239
2.b-[
=240
4b-]
8a
8g
8b-
8a
=241
4g
8f
8e
8g
8f
=242
4e
8d
8c#
8e
8d
=243
4c#
8B-
8A
8c
8B-
=244
4A
8A
8B-
8B-
8A
=245
8A
8d
8c#
8d
4e
=246
4f
8A
8B-
8B-
8A
=247
8A
8F
8E
8D
4E
=248
4AA
4r
4e
=249
4f
2d
=250
4a
2e
=251
4f
2d
=252
2.a
=253
2e
4cc#
=254
2.cc#
=255
2.r
=256
4A
8B-
8A
8c
8B-
=257
4G
8A
8G
8B-
8A
=258
4F
8G
8F
8A
8G
=259
4E
8F
8E
8G
8F
=260
4D
4r
4r
=261
4r
4r
4A
=262
4A
4r
4r
=263
4r
4r
4E
=264
4c
8A
8B-
8B-
8A
=265
4G
8G
8A
8A
8G
=266
4F
8F
8G
8G
8F
=267
4E
8E
8F
8F
8E
=268
2.D
=269
2c
4B-
=270
2.a-
=271
2.r
=272
2.f
=273
4B-
4e-
4d
=274
2.c#
=275
2.d
=276
2.c
=277
4F#
4B-
4A
=278
2.G
=279
4C#
4F
4E
=280
2.E-
=281
2.D
=282
2.BB-
=283
2.GG
=284
4DD
8DD
8EE-
8EE-
8DD
=285
4DD
2GG
=286
4DD
8DD
8EE-
8EE-
8DD
=287
4DD
2GG
=288
4DD
8DD
8EE-
8EE-
8DD
=289
4r
8DD
8EE-
8EE-
8DD[
=290
4DD]
4r
4AA
=291
4A
4r
4r
==
*-
